X:1
T:Miserere
T:William Hayes (1708-1777)
T:Miserere
T:Canon
T:Copyright © 
C:William Hayes (1708-1777)
Z:Copyright ©
%%score [ 1 2 3 ]
L:1/8
M:4/4
K:C
V:1 treble nm="Alto" snm="A."
V:2 treble-8 transpose=-12 nm="Tenor" snm="T."
V:3 bass nm="Bass" snm="B."
V:1
 E8- | E4 D4 | C6 B,A, |: (B,4 E4) | A,4 z4 | z4 E3 E | (D4 B,4) | C8 | (B,4 ^C4) | D8 | %10
w: Mi-|* se-|re- re _|no- *|bis,|mi- se-|re- *|re|no- *|bis,|
 z2 E2 E2 E2 | (D4 E4) | F8 | (E4 A4- | A4) ^G4 | A6 A2 |({A} =G4 E4) | F8 | (E6 F2) | G6 FE | %20
w: sal- va- tor|mun- *|di,|mi- *|* se-|re- re||bis,|sal- *|va- tor _|
 A2 A,2 z4 | E8- | E4 D4 | C6 B,A, :| B,4 E4 | F6 F2 | E2 E2 (E4- | E4 D4) | !fermata!E16 |] %29
w: mun- di,|mi-|* se-|re- re _|no- bis,|mi- se-|re- re no-||bis.|
V:2
 z8 | B8- | B4 A4 |: G6 ^FE | (^F4 B4) | E4 z4 | z4 B3 B | (A4 ^F4) | G8 | (^F4 ^G4) | A8 | %11
w: |Mi-|* se-|re- re _|no- *|bis,|mi- se-|re- *|re|no- *|bis,|
 z2 B2 B2 B2 | (A4 B4) | c8 | (B4 e4- | e4) ^d4 | e6 e2 |({e} =d4 B4) | c8 | (B6 c2) | d6 cB | %21
w: sal- va- tor|mun- *|di,|mi- *|* se-|re- re||bis,|sal- *|va- tor _|
 e2 E2 z4 | B8- | B4 A4 :| A4 ^G4 | A4 B4 | (c2 G2) c4 | A8 | !fermata!^G16 |] %29
w: mun- di,|mi-|* se-|re- re,|mi- se-|re- * re|no-|bis.|
V:3
 z8 | z8 | z8 |: E,8- | E,4 D,4 | C,6 B,,A,, | (B,,4 E,4) | A,,4 z4 | z4 E,3 E, | (D,4 B,,4) | %10
w: |||Mi-|* se-|re- re _|no- *|bis,|mi- se-|re- *|
 C,8 | (B,,4 ^C,4) | D,8 | z2 E,2 E,2 E,2 | (D,4 E,4) | F,8 | (E,4 A,4- | A,4) ^G,4 | A,6 A,2 | %19
w: re|no- *|bis,|sal- va- tor|mun- *|di,|mi- *|* se-|re- re|
({A,} =G,4 E,4) | F,8 | (E,6 F,2) | G,6 F,E, | A,2 A,,2 z4 :| E,8- | E,4 D,4 | C,6 B,,A,, | F,8 | %28
w: |bis,|sal- *|va- tor _|mun- di,|mi-|* se-|re- re _|no|
 !fermata!E,16 |] %29
w: bis.|

